Apricity Icons/apps/scalable/steam_icon_274170.svg

<svg version="1.1" viewBox="0 0 48 48" xmlns="http://www.w3.org/2000/svg" xmlns:xlink="http://www.w3.org/1999/xlink">
 <defs>
  <linearGradient id="linearGradient851" x2="0" y1="47" y2="1" gradientUnits="userSpaceOnUse">
   <stop style="stop-color:#4a5860" offset="0"/>
   <stop style="stop-color:#53626b" offset="1"/>
  </linearGradient>
 </defs>
 <path d="m36.31 5c5.859 4.062 9.688 10.831 9.688 18.5 0 12.426-10.07 22.5-22.5 22.5-7.669 0-14.438-3.828-18.5-9.688 1.037 1.822 2.306 3.499 3.781 4.969 4.085 3.712 9.514 5.969 15.469 5.969 12.703 0 23-10.298 23-23 0-5.954-2.256-11.384-5.969-15.469-1.469-1.475-3.147-2.744-4.969-3.781zm4.969 3.781c3.854 4.113 6.219 9.637 6.219 15.719 0 12.703-10.297 23-23 23-6.081 0-11.606-2.364-15.719-6.219 4.16 4.144 9.883 6.719 16.219 6.719 12.703 0 23-10.298 23-23 0-6.335-2.575-12.06-6.719-16.219z" style="opacity:.05"/>
 <path d="m41.28 8.781c3.712 4.085 5.969 9.514 5.969 15.469 0 12.703-10.297 23-23 23-5.954 0-11.384-2.256-15.469-5.969 4.113 3.854 9.637 6.219 15.719 6.219 12.703 0 23-10.298 23-23 0-6.081-2.364-11.606-6.219-15.719z" style="opacity:.1"/>
 <path d="m31.25 2.375c8.615 3.154 14.75 11.417 14.75 21.13 0 12.426-10.07 22.5-22.5 22.5-9.708 0-17.971-6.135-21.12-14.75a23 23 0 0 0 44.875 -7 23 23 0 0 0 -16 -21.875z" style="opacity:.2"/>
 <g style="fill:#4a5860">
  <path d="m24 1c12.703 0 23 10.297 23 23s-10.297 23-23 23-23-10.297-23-23 10.297-23 23-23z" style="fill:url(#linearGradient851)"/>
 </g>
 <path d="m40.03 7.531c3.712 4.084 5.969 9.514 5.969 15.469 0 12.703-10.297 23-23 23-5.954 0-11.384-2.256-15.469-5.969 4.178 4.291 10.01 6.969 16.469 6.969 12.703 0 23-10.298 23-23 0-6.462-2.677-12.291-6.969-16.469z" style="opacity:.1"/>
 <path d="m25 10a15 15 0 0 0 -15 15 15 15 0 0 0 15 15 15 15 0 0 0 15 -15 15 15 0 0 0 -15 -15m-4 4h2v1h1v3h-8.734a12 12 0 0 1 3.113 -3h2.621v-1m4 0h1 3.783a12 12 0 0 1 4.945 4h-5.728v-1h-2v1h-2v-4zm0 5h2v3 3h-4v-5h2v-1zm4 0h5v3h2v-1.76a12 12 0 0 1 1 4.76h-9v-3h1v-3zm-14.89 1h5.89v3h1v2h-8a12 12 0 0 1 0.182 -2h0.818v-2.78a12 12 0 0 1 0.11 -0.22m-0.94 7h7.83v1h1v2h-7.893a12 12 0 0 1 -0.938 -3zm9.83 0h6v2h2v-2h5.818a12 12 0 0 1 -1.438 4h-10.38v-1h-2v-3zm-6.93 6h5.93v2h1v-2h6v2h1v-2h3.928a12 12 0 0 1 -4.168 3h-1.76v0.609a12 12 0 0 1 -3 0.391 12 12 0 0 1 -3 -0.395v-0.605h-1.78a12 12 0 0 1 -2.22 -1.266v-0.734h-0.92a12 12 0 0 1 -1 -1z" style="opacity:.1"/>
 <path d="m24 9a15 15 0 0 0 -15 15 15 15 0 0 0 15 15 15 15 0 0 0 15 -15 15 15 0 0 0 -15 -15zm-4 4h2v1h1v3h-8.734a12 12 0 0 1 3.113 -3h2.621v-1zm4 0h1 3.783a12 12 0 0 1 4.946 4h-5.729v-1h-2v1h-2v-4zm0 5h2v3 3h-4v-5h2v-1zm4 0h5v3h2v-1.76a12 12 0 0 1 1 4.76h-9v-3h1v-3zm-14.89 1h5.89v3h1v2h-8a12 12 0 0 1 0.182 -2h0.818v-2.783a12 12 0 0 1 0.11 -0.217zm-0.94 7h7.83v1h1v2h-7.89a12 12 0 0 1 -0.94 -3zm9.83 0h6v2h2v-2h5.818a12 12 0 0 1 -1.437 4h-10.381v-1h-2v-3zm-6.93 6h5.93v2h1v-2h6v2h1v-2h3.928a12 12 0 0 1 -4.168 3h-1.76v0.609a12 12 0 0 1 -3 0.391 12 12 0 0 1 -3 -0.395v-0.605h-1.783a12 12 0 0 1 -2.217 -1.266v-0.734h-0.92a12 12 0 0 1 -1.01 -1z" style="fill:#ff8040"/>
</svg>

<svg xmlns="http://www.w3.org/2000/svg" viewBox="0 0 48 48">
 <g>
  <path d="m 36.31 5 c 5.859 4.062 9.688 10.831 9.688 18.5 c 0 12.426 -10.07 22.5 -22.5 22.5 c -7.669 0 -14.438 -3.828 -18.5 -9.688 c 1.037 1.822 2.306 3.499 3.781 4.969 c 4.085 3.712 9.514 5.969 15.469 5.969 c 12.703 0 23 -10.298 23 -23 c 0 -5.954 -2.256 -11.384 -5.969 -15.469 c -1.469 -1.475 -3.147 -2.744 -4.969 -3.781 z m 4.969 3.781 c 3.854 4.113 6.219 9.637 6.219 15.719 c 0 12.703 -10.297 23 -23 23 c -6.081 0 -11.606 -2.364 -15.719 -6.219 c 4.16 4.144 9.883 6.719 16.219 6.719 c 12.703 0 23 -10.298 23 -23 c 0 -6.335 -2.575 -12.06 -6.719 -16.219 z" style="opacity:0.05"/>
  <path d="m 41.28 8.781 c 3.712 4.085 5.969 9.514 5.969 15.469 c 0 12.703 -10.297 23 -23 23 c -5.954 0 -11.384 -2.256 -15.469 -5.969 c 4.113 3.854 9.637 6.219 15.719 6.219 c 12.703 0 23 -10.298 23 -23 c 0 -6.081 -2.364 -11.606 -6.219 -15.719 z" style="opacity:0.1"/>
  <path d="m 31.25 2.375 c 8.615 3.154 14.75 11.417 14.75 21.13 c 0 12.426 -10.07 22.5 -22.5 22.5 c -9.708 0 -17.971 -6.135 -21.12 -14.75 a 23 23 0 0 0 44.875 -7 a 23 23 0 0 0 -16 -21.875 z" style="opacity:0.2"/>
 </g>
 <g style="fill:#4a5860;fill-opacity:1">
  <path d="m 24 1 c 12.703 0 23 10.297 23 23 c 0 12.703 -10.297 23 -23 23 -12.703 0 -23 -10.297 -23 -23 0 -12.703 10.297 -23 23 -23 z"/>
 </g>
 <g>
  <path d="m 40.03 7.531 c 3.712 4.084 5.969 9.514 5.969 15.469 0 12.703 -10.297 23 -23 23 c -5.954 0 -11.384 -2.256 -15.469 -5.969 4.178 4.291 10.01 6.969 16.469 6.969 c 12.703 0 23 -10.298 23 -23 0 -6.462 -2.677 -12.291 -6.969 -16.469 z" style="opacity:0.1"/>
 </g>
 <path d="M 25 10 A 15 15 0 0 0 10 25 15 15 0 0 0 25 40 15 15 0 0 0 40 25 15 15 0 0 0 25 10 m -4 4 2 0 0 1 1 0 0 3 -8.734 0 a 12 12 0 0 1 3.113 -3 L 21 15 21 14 m 4 0 1 0 3.783 0 a 12 12 0 0 1 4.945 4 L 29 18 l 0 -1 -2 0 0 1 -2 0 0 -4 z m 0 5 2 0 0 3 0 3 -4 0 0 -5 2 0 0 -1 z m 4 0 5 0 0 3 2 0 0 -1.76 A 12 12 0 0 1 37 25 l -9 0 0 -3 1 0 0 -3 z M 14.11 20 20 20 l 0 3 1 0 0 2 -8 0 a 12 12 0 0 1 0.182 -2 L 14 23 14 20.22 A 12 12 0 0 1 14.11 20 M 13.17 27 21 27 l 0 1 1 0 0 2 -7.893 0 a 12 12 0 0 1 -0.938 -3 z M 23 27 l 6 0 0 2 2 0 0 -2 5.818 0 a 12 12 0 0 1 -1.438 4 L 25 31 l 0 -1 -2 0 0 -3 z M 16.07 33 22 33 l 0 2 1 0 0 -2 6 0 0 2 1 0 0 -2 3.928 0 a 12 12 0 0 1 -4.168 3 L 28 36 28 36.609 A 12 12 0 0 1 25 37 12 12 0 0 1 22 36.605 L 22 36 20.22 36 A 12 12 0 0 1 18 34.734 L 18 34 17.08 34 a 12 12 0 0 1 -1 -1 z" style="fill:#000;opacity:0.1;fill-opacity:1;stroke:none;fill-rule:nonzero"/>
 <path d="M 24 9 A 15 15 0 0 0 9 24 A 15 15 0 0 0 24 39 A 15 15 0 0 0 39 24 A 15 15 0 0 0 24 9 z M 20 13 L 22 13 L 22 14 L 23 14 L 23 17 L 14.266 17 A 12 12 0 0 1 17.379 14 L 20 14 L 20 13 z M 24 13 L 25 13 L 28.783 13 A 12 12 0 0 1 33.729 17 L 28 17 L 28 16 L 26 16 L 26 17 L 24 17 L 24 13 z M 24 18 L 26 18 L 26 21 L 26 24 L 22 24 L 22 19 L 24 19 L 24 18 z M 28 18 L 33 18 L 33 21 L 35 21 L 35 19.24 A 12 12 0 0 1 36 24 L 27 24 L 27 21 L 28 21 L 28 18 z M 13.11 19 L 19 19 L 19 22 L 20 22 L 20 24 L 12 24 A 12 12 0 0 1 12.182 22 L 13 22 L 13 19.217 A 12 12 0 0 1 13.11 19 z M 12.17 26 L 20 26 L 20 27 L 21 27 L 21 29 L 13.11 29 A 12 12 0 0 1 12.17 26 z M 22 26 L 28 26 L 28 28 L 30 28 L 30 26 L 35.818 26 A 12 12 0 0 1 34.381 30 L 24 30 L 24 29 L 22 29 L 22 26 z M 15.07 32 L 21 32 L 21 34 L 22 34 L 22 32 L 28 32 L 28 34 L 29 34 L 29 32 L 32.928 32 A 12 12 0 0 1 28.76 35 L 27 35 L 27 35.609 A 12 12 0 0 1 24 36 A 12 12 0 0 1 21 35.605 L 21 35 L 19.217 35 A 12 12 0 0 1 17 33.734 L 17 33 L 16.08 33 A 12 12 0 0 1 15.07 32 z" style="fill:#ff8040;opacity:1;fill-opacity:1;stroke:none;fill-rule:nonzero"/>
</svg>
